X: 24334
T: Loughcurra
R: reel
M: 4/4
K: Edorian
BEED EFGA|B2eB dBA2|BEED EFGA|(3Bcd AF A2FA|
B2ED EFGA|B2eB dBA2|Beed efge|1 dBAF E2ed:|2 dBAF E2FA||
Beed efga|~b2ag eBBA|Beed efge|dBGB A2GA|
Beed efga|b2ag eBBA|Beed efge|1 dBAF E2FA:|2 dBAF E2ed||

